X: 52
T: No_41_Klokali_Song_Learned_From_a_Slave_(a).krn
N: Derived from No_41_Klokali_Song_Learned_From_a_Slave_(a).krn
%%abc-version 2.0
%%abcx-abcm2ps-target-version 5.9.1 (29 Sep 2008)
%%abc-creator hum2abc beta
%%abcx-conversion-date 2019/03/15 08:36:13
%%humdrum-veritas 3638954794
%%humdrum-veritas-data 3731442209
%%linebreak <none>
%%barnumbers 0
L: 1/8
M: 2/4
K: F clef=bass
[K:clef=bass][M:2/4]z2G,2 ]|:  
B,/A,3/-A,2- ||  
[M:3/4]A,2G,2A,/G,/F,3//F,// | 
F,3/G,/F,2F, z | 
A,3/A,/ A,3/G,/ (3:2:1A,G,(3:2:1F,/ | 
[M:2/4]F,2F,2 ||  
[M:3/4]_A,3A, (3A,G,F, ||  
[M:2/4]F,3/F,/ F,3/G,/ ||  
[M:3/4]F,4-F,3/G,/ ||  
[M:2/4]F, zF,2 | 
F,4- | 
F,2_A, z | 
z2_A,2 ||  
[M:3/4]B,4-B,3//_C//B,/_A,/ ||  
[M:2/4]B,=A, G,3/F,/ ||  
[M:3/4]F,2F,2F, z | 
A,3/A,/ A,3/G,/ A,/G,/F,3//F,// ||  
[M:2/4]F,2F, z ||  
[M:3/4]_A,3A, (3A,G,F, ||  
[M:2/4]F,3/F,/ F,3/G,/ | 
F,2z2 ||  
[M:3/4]z G, F, zF,2 | 
F,3/_A,/ A, zA,2 :|]  
F,3/_A,/ A, zz2 |]  



